static/icons/basic/rocket-icon.svg

<svg width="32" height="32" viewBox="0 0 32 32" fill="none" xmlns="http://www.w3.org/2000/svg">
<path d="M15.9997 19.9999L11.9997 15.9999M15.9997 19.9999C17.8621 19.2916 19.6489 18.3982 21.333 17.3333M15.9997 19.9999V26.6666C15.9997 26.6666 20.0397 25.9333 21.333 23.9999C22.773 21.8399 21.333 17.3333 21.333 17.3333M11.9997 15.9999C12.7092 14.1592 13.6026 12.3947 14.6663 10.7333C16.2199 8.24924 18.3832 6.20399 20.9503 4.79205C23.5175 3.3801 26.4032 2.64842 29.333 2.66659C29.333 6.29326 28.293 12.6666 21.333 17.3333M11.9997 15.9999H5.33301C5.33301 15.9999 6.06634 11.9599 7.99967 10.6666C10.1597 9.22659 14.6663 10.6666 14.6663 10.6666M5.99967 21.9999C3.99967 23.6799 3.33301 28.6666 3.33301 28.6666C3.33301 28.6666 8.31967 27.9999 9.99967 25.9999C10.9463 24.8799 10.933 23.1599 9.87967 22.1199C9.36142 21.6253 8.67873 21.3394 7.96264 21.3173C7.24655 21.2951 6.54751 21.5382 5.99967 21.9999Z" stroke="#121315" stroke-width="2.66667" stroke-linecap="round" stroke-linejoin="round"/>
</svg>

<svg xmlns="http://www.w3.org/2000/svg" width="32" height="32" fill="none"><path stroke="#121315" stroke-linecap="round" stroke-linejoin="round" stroke-width="2.667" d="m16 20-4-4m4 4a29.801 29.801 0 0 0 5.333-2.667M16 20v6.667s4.04-.734 5.333-2.667c1.44-2.16 0-6.667 0-6.667M12 16a29.334 29.334 0 0 1 2.666-5.267 17.174 17.174 0 0 1 14.667-8.066c0 3.626-1.04 10-8 14.666M12 16H5.333S6.066 11.96 8 10.667c2.16-1.44 6.666 0 6.666 0M6 22c-2 1.68-2.667 6.667-2.667 6.667S8.32 28 10 26c.946-1.12.933-2.84-.12-3.88A2.907 2.907 0 0 0 6 22"/></svg>
